X:1
T:Clama ne cesses
T:Clama ne cesses
T:Benedictus Appenzeller
C:Benedictus Appenzeller
%%score [ 1 [ 2 3 ] 4 ]
L:1/8
Q:1/4=120
M:2/2
K:F
V:1 treble nm="Soprano" snm="S"
V:2 treble-8 nm="Tenor 1" snm="T 1"
V:3 treble-8 nm="Tenor 2" snm="T 2"
V:4 bass nm="Bass" snm="B"
V:1
 z8 | z8 | z4 B4- | B4 A4- | A2 G2 A4 | D3 E F2 G2- | GA B3 A G2- | G2 F3 D G2- | G2 F2 G4 | %9
w: ||Cla-|* ma|_ ne ces-|ses, _ _ _|_ _ _ _ _|* cla- * ma|_ ne ces-|
 F4 z4 | B4 A4- | A2 A2 A4 | D3 E F2 G2- | G2 F2 GE G2- | G2 F2 G4- | G4 z4 | z8 | B4 A4- | %18
w: ses,|cla- ma|_ ne ces-|ses, _ _ _|_ cla- ma _ ne|_ ces- ses,|_||cla- ma|
 A2 G2 A4 | D3 E F2 G2- | GA B3 A G2- | G2 F2 GE G2- | G2 F2 G4 | z2 D2 A4 | B4 A2 E2 | %25
w: _ ne ces-|ses, _ _ _|_ _ _ _ _|* cla- ma _ ne|_ ces- ses,|qua- si|tu- ba ex-|
 F2 D2 A3 B | c2 B3 A F2 | G2 C2 D2 E2- | ED D4 C2 | D4 E4 | D8 | z2 G4 F2 | B2 c2 d4 | z8 | %34
w: al- ta vo- cem|tu- * * *|* am, vo- cem-|* * tu- *||am|et an-|nun- ti- a||
 z2 D2 F2 F2 | E2 D3 EFG | A2 G3 F D2 | E4 D2 B2- | BA G4 F2 | G8 | z4 F4 | D2 E2 F2 G2- | %42
w: po- pu- lo|me- * * * *||* o, po-|* pu- lo me-|o,|sce-|le- a e- o-|
"^b" GE A4 G2 | A2 A3 G G2- |"^#" G2 F2 G4- | G4 z4 | z2 G2 B4 | G2 B3 A F2 | G2 A2 B2 A2- | %49
w: * rum, et do-|mu- i _ _|_ Ja- cob,|_|pec- ca-|ta e- * *|o- * * *|
"^b" A2 GF E4 | D2 G2 B4 | F2 A3 G G2- | G2 F2 G4- | G4 z4 | G8 | F4 E4 | D4 z2 D2 | G6 F2 | %58
w: |rum, pec- ca-|ta e- * o-|* * rum.|_|me|et e-|nim de|di- e|
 G2 B2 A2 G2- | G2 F2 E4 | D4 z2 D2 | A6 G2 | A2 c4 B2- | B2 AG B2 A2- | A2 G2 A4 | z8 | z8 | %67
w: in di- em quae-||runt, de|di- e|in di- em|_ quae- * runt, quae-|* * runt,|||
 z4 D4- | D2 D2 D4 | G4 G2 F2 | D2 F2 E3 F | GA B3 A G2- | G2 F2 G2 G2- |"^b" G2 F2 ED F2 | %74
w: qua-|* si gens|quae iu- sti-|ti- am fe- *||* ce- rit, quae|_ iu- sti- ti- am|
"^b" E2 D2 A4 | D8 | z2 D2 D2 D2 | G3 A B2 A2 | A2 GF E2 A2 | F2 G2 B3 A/G/ | B4 A4 | z4 G4 | %82
w: fe- * ce-|rit,|et quae iu-|di- ci- um De-|* * * i su-||* i,|non|
 F2 D2 G4 | B6 A2- | AG G4 F2 | G4 z4 | G4 F2 D2 | A4 B4 | A3 G/F/ G3 A | BG B3 A A2- | AG G4 F2 | %91
w: de- re- li-||* * * quae-|rit,|non de- re-|li- *|* * * * quae-|rit, _ non de- re-|* * li- quae-|
 G8- | G8- | G8- | G8- | G8 |] %96
w: rit.|_||||
V:2
 _e8 | d6 c2 | d4 G3 A | Bc d3 c A2 | B2 c4 BA | B3 c d2 _e2- | ed d3 B c2 | B2 A2 B2 c2 | %8
w: Cla-|ma ne|ces- ses, _|_ _ _ _ _|* cla- * *|ma- * * ne|_ _ ces- * *|ses, cla- ma ne|
 A2 B4 AG | d6 c2 | d8- | d8 | z8 | z4 e4 | d6 c2 | d4 G2 d2- | d2 c2 d4- | d2 d2 d2 A2 | c8 | %19
w: ces- * * *||ses,|_||cla-|ma ne|ces- ses, cla-|* * ma|_ ne ces- *||
 B3 A/G/ d4 | z4 z2 A2 | d4 _e4 | d2 A2 B2 G2 | d2 f4 _e2- |"^#" ed d4 c2 | d2 f4 ed | %26
w: * * * es,|qua-|si tu-|ba ex- al- ta|vo- cem tu-||am, ex- al- *|
 _e2 d3 cAB- | BA G2 F2 c2- | c2 B2 A2 G2- | G2 F2 c4 | F2 G2 A4 | z4 d4- | d2 c2 B2 A2 | %33
w: ta vo- * * *|* * * cem tu-|||* * am,|et|_ an- nun- ti-|
 d4 z2 G2 | B2 B2 A4 | G3 A Bc d2- | dc _e3 d d2- | d2 c2 A2 B2 | G4 z2 d2- | d2 B2 c2 d2 | %40
w: a po-|pu- lo me-|o _ _ _ _|_ _ po- * *|* pu- lo me-|o, sce-|* le- ra e-|
 _e4 d2 d2- | d2 B2 c2 d2 | _e2 f4 ed | c2 A2 B2 G2 | d4 z2 B2 | B3 A G2 F2 | G8 | z4 z2 d2- | %48
w: o- rum, [sce-|* le- ra e-|o- * * *||rum,] et|do- mu- i Ja-|cob,|pec-|
 d2 f2 d2 f2- | f_e d3 c c2 | d4 z2 d2- | d2 c2 B2 B2 | A4 z4 | d8 | c4 B4 | A8 | z2 G2 d4- | %57
w: * ca- ta e-|* * o- * *|rum, e-|* * * o-|rum.|Me|et e-|nim|de di-|
 d2 c2 d2 f2 | _e2 d3 c B2 | A3 F B2 c2 | A4 G2 F2- | F2 _E2 A2 B2 | c3 d _e2 d2- | d2 c2 d4 | %64
w: * e in di-||||* em quae _|_ _ _ _|* * runt,|
 z2 d2 d2 d2 | c4 A2 c2- | cBAG B2 A2- | AG G4 F2 | G2 B4 G2 | d8 | z4 c4- | c2 B2 G2 B2 | %72
w: et sc- re|vi- as me|_ _ _ _ as vo-||lunt, qua- si|gens,|quae|_ iu- sti- ti-|
 A4 G3 A | Bcd_e g2 F2 | G4 z2 c2- | c2 B2 G2 B2 | A2 f3 _e d2- | d2 c2 d2 f2- | f_e d4 c2 | %79
w: am fe- *|* * * * * ce-|rit, quae|_ iu- sti- ti-|a fe- * *|* ce- rit, fe-|* * * ce-|
 d2 G2 G2 G2 | d3 _e f2 d2 | c2 BA G2 B2- | BA d4 c2 | d4 z2 d2 | c2 G2 d2 d2 | G2 z2 c4 | %86
w: rit, et- quae iu-|di- ci- um De-|* * * i su-||i, non|de- re- li- que-|rit, non|
 B2 G2 d4 | _e2 f2 d2 e2- | ed d4 c2 | d4 z2 d2 | c2 G2 d4 | e4 d2 z2 | z4 c4 | B2 G2 B4 | %94
w: de- re- li|que- rit, non de-|* re- li- que-|rit, non|de- re- li-|que- rit,|non|de- re- li-|
 _e4 d4- | d8 |] %96
w: que- rit.|_|
V:3
 z8 | z8 | z8 | z8 | z8 | z8 | z8 | z8 | z4 B4- | B4 A4- | A2 G2 A4 | D3 E FG A2- | A2 G2 A2 B2 | %13
w: ||||||||Cla-|* ma|_ ne ces-|ses, _ _ _ cla-|* ma ne ces-|
 c2 A2 B2 c2 | A4 z4 | B6 A2- | A2 G2 A2 D2- | D2 G2 G2 F2 |"^#" ED G4 F2 | G2 B3 AGF | %20
w: |ses,|cla- ma|_ ne ces- ses,|_ cla- ma ne|ces- * * *|ses, cla- * * *|
 G3 A Bc B2- | B2 A2 c3 B | A4 G4 | F3 _E D2 E2 | F2 G2 E4 | D4 z4 | z4 z2 D2 | G4 A4 | %28
w: ma _ _ _ _|_ ne ces- *||||ses,|qua-|si tu-|
 F2 G2 F2 G2 | A2 B4 A2- | AG G4 F2 | B2 c2 A4 | z4 G4- | G2 F2 B2 c2 | d8 | z8 | z8 | z4 z2 G2 | %38
w: ba ex- al- ta|vo cem tu-||* * am|et|_ an- nun- ti-|a|||po-|
 B2 B2 A2 B2- | BA G3 F B2- | B2 A2 B2 B2- | B2 G2 A2 B2 | c2 BA B4 | A2 d2 d3 c | B2 A2 B2 G2 | %45
w: pu- lo me- *||* * o, sce-|* le- ra e-|o- * * *|rum, et do- mu-|i Ja- cob, pec-|
 d4 c2 B2 |"^b" e4 d4 | z8 | z8 | z4 G4 | B4 G2 B2- | BA F2 G4 | c8 | B4 A4 | G4 d4 | z2 d4 c2- | %56
w: ca- ta e-|o- rum,|||pec-|ca- ta e-|* * o- rum.|Me|et e-|* nim,|me et|
 c2 B4 A2- | A2 G2 A4 | z8 | z2 D2 G4- | G2 F2 G2 B2 | A3 G F2 G2- | G2 F2 G2 D2 | _E3 C G2 A2 | %64
w: _ e- *|* * nim||de di-|* e in di-|em _ _ quae-|* * runt in|di- em quae- *|
 B4 A4- | A4 z4 | z2 d2 d2 d2 | c4 A2 B2- | BAGF G3 A | B4 A4- | A4 z4 | z8 | c6 B2 | G2 B4 A2- | %74
w: * runt,|_|et sci- re|vi- as me-||* as,|_||quae iu-|sti- ti- am|
 AG G4 F2 | G3 F D2 d2- | d2 cB A2 B2- | B2 AG F2 D2 | D2 D2 G2 A2 | B3 c d2 d2 | G4 z4 | %81
w: _ _ fe- *|* ce- rit, fe-|* * * * ce-|* * * rit,] et|quae iu- di- ci-|um De- i su-|i,|
 z2 d2 c2 G2 |"^b" d4 e4 | d2 G2 F2 D2 | G4 A2 B2- | BAGF ED G2- | GABG B4 | A2 c2 B2 A2 | %88
w: non de- re|li- que-|rit, [non de- re-|li- * *||* * * * que-|rit,] non de- re-|
"^b" d4 e4 | d2 G2 F2 D2 | G2 G2 A4 | z2 c2 B2 G2 |"^b" d4 e4- |"^b" e2 c2 e2 d2 | c2 c2 B4- | %95
w: li- que-|rit, non de- re-|li- que- rit,|non de- re-|li- *||* que- rit.|
 B8 |] %96
w: _|
V:4
 z8 | z8 | z8 | z8 | z8 | z8 | _E,8 | D,6 C,2 |"^b" D,4 G,,3 A,, | B,,C, D,3 C, A,,2 | %10
w: ||||||Cla-|ma ne|ces- ses, _|_ _ _ _ _|
 B,,2 G,,2 D,3 C, | B,,2 G,,2 D,3 C, | B,,4 A,,2 G,,2 | C,2 D,4 C,2 | D,4 _E,2 C,2 | G,6 F,2 | %16
w: cla- ma ne _|_ ces- * *||* * ces,|cla- ma ne|ces- *|
 _E,4 D,3 C, | B,,2 G,,2 D,4 | C,3 B,, A,,4 | G,,4 z4 | _E,8 | D,6 C,2 | D,4 G,,3 A,, | %23
w: ses, cla- *|* ma ne|ces- * *|ses,|cla-|ma ne|ces- ses, _|
 B,,C, D,4 C,2 | B,,2 G,,2 A,,4 | z8 | z2 G,,2 D,4 | _E,4 D,2 A,,2 | B,,2 G,,2 D,2 _E,2 | D,4 C,4 | %30
w: _ _ _ ne|ces- * ses,||qua- si|tu- ba ex-|al- ta vo- cem|tu- *|
 B,,2 G,,2 D,4 | _E,4 D,4 | z8 | z2 D,4 C,2 | B,,2 G,,2 D,4 | z4 z2 D,2 | %36
w: |* am,||et an-|nun- ti- a|po-|
"^b" F,2 C,/D,/E,/F,/ G,A, B,2 | A,3 G, F,2 G,2- | G,F,_E,D, C,2 D,2 | G,,2 _E,3 D,D,C,/B,,/ | %40
w: pu- lo _ _ _ _ _ _|me- * * *||o, me- * * * *|
 C,4 B,,4 | z8 | z2 F,2 D,2 _E,2 | F,4 G,4 | D,4 z2 G,2 | G,3 F, _E,2 D,2 | C,3 B,, G,,2 G,2 | %47
w: * o,||sce- le- ra|e- o-|rum, et|do- mu- i Ja-|cob _ _ pec-|
 B,4 G,2 B,2- | B,A, F,2 G,2 D,2 | F,2 G,2 C,4 | G,8 | z8 | z4 G,4- | G,4 F,4 | _E,4 D,4- | %55
w: ca- to e-|* * o- * rum,|e- o- *|rum.||Me|_ et|e- nim,|
 D,4 z4 | G,4 F,4 | _E,4 D,4 | z4 z2 G,,2 | D,6 C,2 | D,2 F,2 _E,2 D,2- | D,2 C,2 D,2 B,,2 | %62
w: _|me et|e- nim|de|di- e|in di- em quae|_ _ _ _|
 A,,4 G,,4 | z2 G,2 G,2 F,2 | G,4 D,2 F,2- | F,E, C,2 D,2 _E,2 | F,3 _E, D,2 C,B,, | C,4 D,4 | %68
w: * runt,|et sci- re|vi- as me-|* * * as vo-|||
 G,,4 G,,4- | G,,2 G,,2 D,4- | D,4 z4 | z8 | z4 z2 _E,2- | E,2 D,2 B,,2 D,2 | C,2 B,,2 A,,4 | %75
w: lunt, qua-|* si gens,|_||quae|_ iu- sti- ti-|am fe- ce-|
 G,,2 G,,2 G,,2 G,,2 | D,3 _E, F,2 G,2 | _E,2 E,2 D,4 | z8 | z4 z2 G,,2 | G,,2 G,,2 D,3 _E, | %81
w: rit, et quae iu-|di- ci- um De-|i su- i,||et|quae iu- di- ci-|
 F,2 G,2 _E,2 E,2 | D,4 z2 C,2 | B,,2 G,,2 D,4 | _E,4 D,3 C, |"^#" B,,2 C,3 D,_E,C, | %86
w: um De- i su-|i, non|de re- li-|que- rit, _|_ non _ _ _|
 _E,4 D,2 G,2- | G,2 F,2 G,4 | z4 C,4 | B,,2 G,,2 D,4 | _E,4 D,4 | C,4 z2 C,2 | B,,2 G,,2 C,3 D, | %93
w: de- re- li-|* que- rit,|non|de- re- li-|que- *|rit, non|de- re- li- *|
 _E,C, E,3 D, B,,2 | C,4 G,,4- | G,,8 |] %96
w: * * que- * *|* rit.|_|

